public/mouth-shapes/mouth-X.svg

<?xml version="1.0" encoding="UTF-8" standalone="no"?>
<svg
   xmlns:dc="http://purl.org/dc/elements/1.1/"
   xmlns:cc="http://creativecommons.org/ns#"
   xmlns:rdf="http://www.w3.org/1999/02/22-rdf-syntax-ns#"
   xmlns:svg="http://www.w3.org/2000/svg"
   xmlns="http://www.w3.org/2000/svg"
   xmlns:sodipodi="http://sodipodi.sourceforge.net/DTD/sodipodi-0.dtd"
   xmlns:inkscape="http://www.inkscape.org/namespaces/inkscape"
   inkscape:version="1.0beta1 (32d4812, 2019-09-19)"
   sodipodi:docname="mouth-X.svg"
   stroke-linejoin="round"
   stroke-linecap="round"
   fill="none"
   stroke="black"
   xml:space="preserve"
   enable-background="new 0 0 1697.909790 1697.909790"
   viewBox="3e-06 -2e-06 1024 132.97151"
   height="768"
   width="1024"
   y="0px"
   x="0px"
   id="Contours"
   version="1.1">
  <metadata
     id="metadata221">
    <rdf:RDF>
      <cc:Work
         rdf:about="">
        <dc:format>image/svg+xml</dc:format>
        <dc:type
           rdf:resource="http://purl.org/dc/dcmitype/StillImage" />
        <dc:title></dc:title>
      </cc:Work>
    </rdf:RDF>
  </metadata>
  <defs
     id="defs219" />
  <sodipodi:namedview
     inkscape:current-layer="Contours"
     inkscape:window-maximized="1"
     inkscape:window-y="23"
     inkscape:window-x="0"
     inkscape:cy="345.72287"
     inkscape:cx="711.75318"
     inkscape:zoom="0.70710678"
     showgrid="false"
     id="namedview217"
     inkscape:window-height="755"
     inkscape:window-width="1280"
     inkscape:pageshadow="2"
     inkscape:pageopacity="0"
     guidetolerance="10"
     gridtolerance="10"
     objecttolerance="10"
     borderopacity="1"
     inkscape:document-rotation="0"
     bordercolor="#666666"
     pagecolor="#ffffff" />
  <path
     style="stroke-width:0.547436;stop-opacity:1"
     inkscape:connector-curvature="0"
     id="path214"
     d="m 93.413138,40.41697 c 89.789322,-65.00704 201.463212,-83.90852 302.493292,-51.1988 98.51238,31.89458 202.24582,-10.45973 304.20236,-9.28519 72.23809,0.83218 144.22435,24.13485 207.19899,67.07234 -3.07517,-10.35343 -6.15029,-20.70688 -9.22542,-31.06031 12.58546,9.55925 22.65026,23.92257 28.40013,40.52944 -9.64354,11.16369 -22.94625,16.10571 -35.72922,20.69216 -27.21173,9.76335 -54.42348,19.52671 -81.63524,29.29008 -25.19632,9.04024 -50.41802,18.08849 -76.07773,24.94786 -74.65491,19.95682 -151.83634,21.09108 -228.24231,18.07843 C 365.29186,143.98232 223.60664,124.12413 95.903873,55.7804 98.52981,62.22232 97.352104,70.63847 93.12084,75.66855 80.692381,61.0643 78.941807,35.04554 89.25362,18.19014 c 1.788563,-2.92355 4.729078,-5.8314 7.490259,-4.40449 7.672591,3.96501 -8.204947,18.4227 -3.330742,26.63132 m 11.210133,4.01537 c 82.77368,16.55902 166.78686,21.52623 250.57982,26.46574 57.85845,3.41071 115.74433,6.82225 173.67106,6.81522 C 648.45445,77.6988 767.71011,63.11868 886.38998,45.3517 794.46467,-3.84495 690.38204,-19.01011 591.46678,2.38046 520.13498,17.80606 446.26834,15.77684 375.58537,-3.55009 284.51447,-28.45174 186.02444,-11.01096 104.62327,44.43234 M 889.01163,57.31832 C 869.0168,59.86266 849.02196,62.407 829.02707,64.95136 729.08275,77.66927 628.94136,90.4009 528.45005,91.0584 462.14717,91.49221 395.90598,86.66671 329.72149,81.84318 262.87042,76.97108 195.90645,72.0847 129.70776,59.77827 c 88.181,40.22673 181.72503,60.8882 275.48201,72.09205 163.73903,19.56663 334.53684,9.35224 483.82186,-74.552 M 459.03331,82.64205 c 0.29913,-0.0401 0.69699,-0.26984 0.59153,-0.61174 -0.0624,-0.20239 -0.32552,-0.25053 -0.4344,-0.0795 -3.10831,-2.08432 -6.93253,-2.53376 -10.31291,-1.21203 3.16888,1.70118 6.7114,2.36509 10.15578,1.90326 M 910.28544,58.69256 c -1.20973,0.44322 -2.35445,1.14631 -3.36496,2.06682 1.51214,1.28838 3.79719,0.98905 5.04768,-0.66121 -0.41295,-0.70833 -1.01801,-1.24896 -1.69813,-1.51738 z"
     stroke="none"
     opacity="1.000000"
     fill="#000000"
     class="selected" />
</svg>

<svg xmlns="http://www.w3.org/2000/svg" stroke-linejoin="round" stroke-linecap="round" fill="none" stroke="#000" viewBox="0 0 1024 132.972" height="768" width="1024"><path d="M93.413 40.417c89.79-65.007 201.463-83.909 302.493-51.199 98.513 31.895 202.246-10.46 304.203-9.285 72.238.832 144.224 24.135 207.199 67.072l-9.226-31.06c12.586 9.56 22.65 23.923 28.4 40.53-9.643 11.163-22.946 16.105-35.729 20.692l-81.635 29.29c-25.196 9.04-50.418 18.088-76.078 24.948-74.655 19.956-151.836 21.09-228.242 18.078-139.506-5.5-281.191-25.359-408.894-93.703 2.626 6.442 1.448 14.858-2.783 19.889-12.429-14.605-14.18-40.623-3.867-57.479 1.788-2.923 4.729-5.831 7.49-4.404 7.672 3.965-8.205 18.422-3.33 26.631m11.21 4.015c82.773 16.56 166.786 21.527 250.58 26.466 57.858 3.41 115.743 6.822 173.67 6.815C648.454 77.7 767.71 63.12 886.39 45.352 794.465-3.845 690.382-19.01 591.467 2.38c-71.332 15.426-145.199 13.397-215.882-5.93-91.07-24.902-189.56-7.461-270.962 47.982m784.389 12.886l-59.985 7.633C729.083 77.67 628.941 90.401 528.45 91.058c-66.303.434-132.544-4.391-198.729-9.215-66.85-4.872-133.815-9.758-200.013-22.065 88.18 40.227 181.725 60.888 275.482 72.092 163.739 19.567 334.537 9.353 483.822-74.552M459.033 82.642c.3-.04.697-.27.592-.612-.063-.202-.326-.25-.435-.08-3.108-2.084-6.932-2.533-10.312-1.211 3.168 1.701 6.71 2.365 10.155 1.903m451.252-23.95a10.267 10.267 0 00-3.365 2.067c1.513 1.289 3.798.99 5.048-.66-.413-.71-1.018-1.25-1.698-1.518z" stroke="none" fill="#000" class="selected" stroke-width=".547"/></svg>
